X:1
T:Dunstan, 88.86
T:Dunstan, 88.86
T:Joseph Barnby, 1893
T:Public Domain Courtesy of the Cyber Hymnal™
C:Joseph Barnby, 1893
Z:Public Domain
Z:Courtesy of the Cyber Hymnal™
%%score ( 1 2 ) ( 3 4 )
L:1/8
M:3/4
K:Ab
V:1 treble 
V:2 treble 
V:3 bass 
V:4 bass 
V:1
 [CE]2 [CF]2 [CA]2 | [DG]4 [B,E]2 | [EA]4 [EB]2 | [Ec]6 | [Ec]2 [Ec]2 [Ec]2 | [Fd]4 [Ec]2 | %6
 [DB]4 [=DA]2 | [EG]6 | [EB]2 [Ec]2 [Ed]2 | [Ee]4 [Ec]2 | [EA]4 [=EG]2 | F6 | F2 G2 A2 | %13
 [CEe]4 [DB]2 | [CA]6 |] %15
V:2
 x6 | x6 | x6 | x6 | x6 | x6 | x6 | x6 | x6 | x6 | x6 | F6 | D6 | x6 | x6 |] %15
V:3
 [A,,E,]2 [A,,F,]2 [A,,A,]2 | [B,,G,]4 [D,G,]2 | [C,A,]4 [E,G,]2 | A,6 | [A,C]2 [_G,B,]2 [G,B,]2 | %5
 [F,=A,]4 [F,A,]2 | [B,,B,]4 [B,,B,]2 | [E,B,]6 | [D,G,]2 [E,G,]2 [D,G,]2 | [C,A,]4 [A,,A,]2 | %10
 [C,A,]4 [C,B,]2 | [D,A,]4 [F,=A,]2 | F,2 G,2 A,2 | [E,G,C]4 [E,G,]2 | [A,,E,A,]6 |] %15
V:4
 x6 | x6 | x6 | A,6 | x6 | x6 | x6 | x6 | x6 | x6 | x6 | x6 | B,,6 | x6 | x6 |] %15

